gama.ui.shared/icons_svg/light/generic/menu.search.svg

<svg height="25" viewBox="-243.63 -3652.011 25 25" width="25" xmlns="http://www.w3.org/2000/svg"><g fill="none"><path d="m-239.29003-3651.511h16.31999c2.12078 0 3.84 1.7194 3.84 3.84v16.32c0 2.121-1.71922 3.84-3.84 3.84h-16.31999c-2.12077 0-3.84001-1.719-3.84001-3.84v-16.32c0-2.1206 1.71924-3.84 3.84001-3.84z" fill="#fff"/><path d="m-239.29003-3651.511h16.31999c2.12078 0 3.84 1.7194 3.84 3.84v16.32c0 2.121-1.71922 3.84-3.84 3.84h-16.31999c-2.12077 0-3.84001-1.719-3.84001-3.84v-16.32c0-2.1206 1.71924-3.84 3.84001-3.84z" stroke="#000" stroke-linecap="round" stroke-linejoin="round" stroke-width=".25"/><path d="m-226.6856-3636.0394 3.42223 3.4224c.17777.1776.17777.453 0 .631-.17778.1777-.45333.1777-.63111 0l-3.42222-3.4223c-1.25334 1.1113-2.89778 1.7778-4.70222 1.7778-3.92888 0-7.11112-3.1822-7.11112-7.1111s3.18224-7.1111 7.11112-7.1111 7.11112 3.1822 7.11112 7.1111c0 1.8046-.67557 3.4489-1.7778 4.7022zm-5.33332 1.52c3.44 0 6.22222-2.7822 6.22222-6.2222s-2.78222-6.2224-6.22222-6.2224-6.22223 2.7824-6.22223 6.2224 2.78223 6.2222 6.22223 6.2222z" fill="#5c76a1"/></g></svg>

<?xml version="1.0" encoding="UTF-8" standalone="no"?>
<!DOCTYPE svg PUBLIC "-//W3C//DTD SVG 1.1//EN" "http://www.w3.org/Graphics/SVG/1.1/DTD/svg11.dtd">
<svg version="1.1" xmlns="http://www.w3.org/2000/svg" xmlns:xl="http://www.w3.org/1999/xlink" xmlns:dc="http://purl.org/dc/elements/1.1/" viewBox="-243.63004 -3652.011 25 25" width="25" height="25">
  <defs/>
  <g id="SOURCES" stroke-dasharray="none" fill="none" stroke="none" fill-opacity="1" stroke-opacity="1">
    <title>SOURCES</title>
    <g id="SOURCES_Calque_2">
      <title>Calque 2</title>
      <g id="Graphic_9252">
        <path d="M -239.29003 -3651.511 L -222.97004 -3651.511 C -220.84926 -3651.511 -219.13004 -3649.7916 -219.13004 -3647.671 L -219.13004 -3631.351 C -219.13004 -3629.23 -220.84926 -3627.511 -222.97004 -3627.511 L -239.29003 -3627.511 C -241.4108 -3627.511 -243.13004 -3629.23 -243.13004 -3631.351 L -243.13004 -3647.671 C -243.13004 -3649.7916 -241.4108 -3651.511 -239.29003 -3651.511 Z" fill="white"/>
        <path d="M -239.29003 -3651.511 L -222.97004 -3651.511 C -220.84926 -3651.511 -219.13004 -3649.7916 -219.13004 -3647.671 L -219.13004 -3631.351 C -219.13004 -3629.23 -220.84926 -3627.511 -222.97004 -3627.511 L -239.29003 -3627.511 C -241.4108 -3627.511 -243.13004 -3629.23 -243.13004 -3631.351 L -243.13004 -3647.671 C -243.13004 -3649.7916 -241.4108 -3651.511 -239.29003 -3651.511 Z" stroke="black" stroke-linecap="round" stroke-linejoin="round" stroke-width=".25"/>
      </g>
      <g id="Group_9321">
        <title>search</title>
        <g id="Graphic_9322">
          <path d="M -226.6856 -3636.0394 L -223.26337 -3632.617 C -223.0856 -3632.4394 -223.0856 -3632.164 -223.26337 -3631.986 C -223.44115 -3631.8083 -223.7167 -3631.8083 -223.89448 -3631.986 L -227.3167 -3635.4083 C -228.57004 -3634.297 -230.21448 -3633.6305 -232.01892 -3633.6305 C -235.9478 -3633.6305 -239.13004 -3636.8127 -239.13004 -3640.7416 C -239.13004 -3644.6705 -235.9478 -3647.8527 -232.01892 -3647.8527 C -228.09004 -3647.8527 -224.9078 -3644.6705 -224.9078 -3640.7416 C -224.9078 -3638.937 -225.58337 -3637.2927 -226.6856 -3636.0394 Z M -232.01892 -3634.5194 C -228.57892 -3634.5194 -225.7967 -3637.3016 -225.7967 -3640.7416 C -225.7967 -3644.1816 -228.57892 -3646.964 -232.01892 -3646.964 C -235.45892 -3646.964 -238.24115 -3644.1816 -238.24115 -3640.7416 C -238.24115 -3637.3016 -235.45892 -3634.5194 -232.01892 -3634.5194 Z" fill="#5c76a1"/>
        </g>
      </g>
    </g>
  </g>
</svg>
